X: 483
T: Sweet Molly Malone
N:"Moderate" "collected by J.O'Neill"
N:Irish title: maire .maisea.c ni maeleoin
B:O'Neill's 483
Z:Transcribed by henrik.norbeck@mailbox.swipnet.se
M:3/4
L:1/8
K:G
D2 | G2 G2 G2 | G B3 G2 | A2 A2 A2 | A c3 c2 |
B2 d2 d2 | d2 B2 G2 | F2 A2 A2 | A4 D2 |
G3 G G2 | G B3 G2 | A2 A2 A2 | A c3 A2 |
B d3 G2 | B d3 F2 | A3 G G2 | G4 ||


